X: 36124
T: Scolding Wife, The
R: reel
M: 4/4
K: Dmajor
D3E FEFD|G3A BGAF|D3E FEFG|AdcA G3F|
D3E FEFD|G3A BGAB|d3g fdde|fd=cA G3F||
fdde fgaf|g3a bgag|fdde fgag|fd=cA G3d|
fdde fgaf|g3a bg g2|bg g2 fgag|fd=cA G3F||

